X: 5
T: The Rattlin' Bog
R: polka
M: 2/4
L: 1/8
K: Dmaj
|: f2 f>e | dB Bd/B/ | Ad d/c/d/e/ | fe ea |
f2 f>e | dB Bd | Aa af | ed d>e :|
|: fd ed | fd ed/e/ | fa af | ed e>e |
fd ed | fd ed/e/ | fa af |[1 ed d>e :|[2 ed d2 |]


Tune 583	Setting 13576

